icons/marketplace-zalando.svg

<svg width="36" height="36" viewBox="0 0 36 36" fill="none" xmlns="http://www.w3.org/2000/svg">
    <rect x="0.5" y="0.5" width="35" height="35" rx="7.5" fill="white"/>
    <rect x="0.5" y="0.5" width="35" height="35" rx="7.5" stroke="#E9EAEC"/>
    <path d="M27.4634 20.3955C25.9114 22.3473 23.7412 24.2415 20.899 25.9506L20.8882 25.9563C18.0229 27.6243 15.3373 28.6035 12.9121 29.0055C11.3986 29.2563 10.675 28.965 10.3462 28.77C10.0168 28.5753 9.40875 28.0791 8.86425 26.6103C7.99095 24.2568 7.47525 21.3837 7.45215 18.0063V17.994C7.47525 14.6166 7.99095 11.7432 8.86425 9.39002C9.40905 7.92062 10.0171 7.42472 10.3462 7.23032C10.675 7.03532 11.3986 6.74342 12.9121 6.99422C15.3373 7.39622 18.0232 8.37542 20.8882 10.0431L20.899 10.0494C23.7409 11.7582 25.9114 13.6527 27.4634 15.6048C28.4321 16.8228 28.5473 17.6106 28.5473 18C28.5473 18.3894 28.4321 19.1769 27.4634 20.3952V20.3955Z"
          fill="#FF4C00"/>
</svg>

<svg xmlns="http://www.w3.org/2000/svg" fill="none" viewBox="0 0 36 36"><rect width="35" height="35" x=".5" y=".5" fill="currentColor" rx="7.5"/><rect width="35" height="35" x=".5" y=".5" stroke="currentColor" rx="7.5"/><path fill="currentColor" d="M27.463 20.396c-1.552 1.951-3.722 3.845-6.564 5.555l-.01.005c-2.866 1.668-5.552 2.648-7.977 3.05-1.513.25-2.237-.041-2.566-.236-.33-.195-.937-.69-1.482-2.16-.873-2.353-1.389-5.226-1.412-8.604v-.012c.023-3.377.539-6.25 1.412-8.604.545-1.47 1.153-1.965 1.482-2.16s1.053-.487 2.566-.236c2.425.402 5.111 1.381 7.976 3.05l.011.005c2.842 1.71 5.012 3.604 6.564 5.556.97 1.218 1.084 2.006 1.084 2.395s-.115 1.177-1.084 2.395"/></svg>
